X: 16897
T: Haunt Of The Gnomes, The
R: reel
M: 4/4
K: Amajor
|:E2|EAGA d2c2|F4 B2A2|GAB^B c=BGF|E6 E2|
EAGA d2c2|F4 B2A2|GA^A=B edFG|A6:|
|:c2|ca^de =c^cGA|g4f2 z2|EGBd edGd|c6c2|
ca^de =c^cGA|G4 F2=F2|EGBd edGB|A6:|

